X: 22
T: Wakangtangka, Pity Me
C: Teton Sioux band 1911-1914
N: Derived from sioux022.krn
O: South Dakota, U.S.A.
N: Teton Sioux Music by Frances Densmore, 1918
Z: transcribed to **kern format by Craig Sapp
L: 1/8
M: 2/4
Q: 1/4=58
K: C clef=treble
%%linebreak <none>
A2B3/ A/ [I:setbarnb 1]||  
[M:3/4]A GE4 ||  
[M:2/4]A2A3/ G/ | 
A4 | 
A2A A/ G/ | 
E4 ||  
[M:3/4]G> A A GE2 ||  
[M:2/4]^D4 | 
E4 ||  
[M:3/4]E2E< ^DD2 ||  
[M:2/4]B,3B, | 
B,4- | 
B,3B, | 
A2A2 | 
A3G ||  
[M:3/4]G2E3E ||  
[M:2/4]A> AA2 | 
A2A G | 
E2E2 | 
G2A G3// G// ||  
[M:3/4]E2^D2D3/ E/ | 
E2E3F | 
E/ E/ E ^D D-D2 | 
B,6 |]  



